resources/svg/rupee.svg

<svg xmlns="http://www.w3.org/2000/svg" viewBox="0 0 15 15" fill="currentColor"><path fill-rule="evenodd" clip-rule="evenodd" d="M1.99999 1V0H13V1H8.32866C9.22627 1.72635 9.83888 2.791 9.97253 4H13V5H9.97253C9.72381 7.24998 7.81627 9 5.49999 9H3.85162L9.82539 14.1204L9.1746 14.8796L2.1746 8.87963C2.01573 8.74346 1.95846 8.52277 2.03105 8.32653C2.10365 8.13029 2.29076 8 2.49999 8H5.49999C7.26323 8 8.72193 6.69615 8.96455 5H1.99999V4H8.96455C8.72193 2.30385 7.26323 1 5.49999 1H1.99999Z" fill="black"/></svg>

<svg xmlns="http://www.w3.org/2000/svg" viewBox="0 0 15 15" fill="currentColor"><path fill-rule="evenodd" clip-rule="evenodd" d="M2 1V0h11v1H8.329a4.494 4.494 0 011.644 3H13v1H9.973A4.5 4.5 0 015.5 9H3.852l5.973 5.12-.65.76-7-6A.5.5 0 012.5 8h3a3.5 3.5 0 003.465-3H2V4h6.965A3.5 3.5 0 005.5 1H2z" fill="currentColor"/></svg>
